X:1
T:French Suite V Courante
T:BWV 816
T:J. S. Bach
%%score { ( 1 3 4 ) | ( 2 5 ) }
L:1/8
M:3/4
K:G
V:1 treble nm="Harp"
V:3 treble 
V:4 treble 
V:2 bass 
V:5 bass 
V:1
 g/ | gf/e/ d/c/B/A/ B/d/A/c/ | BG Bd gf | g/a/b/g/ d/=f/e/d/ e/a/b/c'/ | fd z/ e/d/c/ B/d/A/d/ | %5
 G/d/F/d/ G/d/c/B/ A/G/=F/d/ | E/d/D/d/ E/d/c/B/ A/G/A/c/ | F/E/D/E/ F/G/A/B/ c/A/d/A/ | B4 z B | %9
 e/f/g/e/ B/e/f/g/ _e/a/g/f/ | ge gd ^ca | d/e/f/d/ A/c/B/A/ B/e/f/g/ | ^cA z A/B/ c/d/e/c/ | %13
 d/e/A/^c/ d/e/A/c/ F/d/A/e/ | d/e/B/^c/ d/e/B/d/ G/d/B/d/ | ^c/d/e/c/ G/B/A/G/ F/d/E/c/ | %16
 d^c/B/ A/G/F/E/ D3/2 g/ | gf/e/ d/c/B/A/ B/d/A/c/ | BG Bd gf | g/a/b/g/ d/=f/e/d/ e/a/b/c'/ | %20
 fd z/ e/d/c/ B/d/A/d/ | G/d/F/d/ G/d/c/B/ A/G/=F/d/ | E/d/D/d/ E/d/c/B/ A/G/A/c/ | %23
 F/E/D/E/ F/G/A/B/ c/A/d/A/ | B4 z B | e/f/g/e/ B/e/f/g/ _e/a/g/f/ | ge gd ^ca | %27
 d/e/f/d/ A/c/B/A/ B/e/f/g/ | ^cA z A/B/ c/d/e/c/ | d/e/A/^c/ d/e/A/c/ F/d/A/e/ | %30
 d/e/B/^c/ d/e/B/d/ G/d/B/d/ | ^c/d/e/c/ G/B/A/G/ F/d/E/c/ | d^c/B/ A/G/F/E/ D3/2 f/ | %33
 f2 z d/e/ f/g/a/f/ | gf/e/ d/c/B/A/ G/B/d/=f/ | e/d/c/B/ A/f/g/a/ g/f/g/e/ | ^dB z b/a/ g/f/e/d/ | %37
 ef/^d/ ef/d/ e2- | e4- ea | g f2 e- e/A/e/^d/ | e4- ee | AB/^c/ d/e/f/g/ a/f/g/e/ | %42
 f/g/f/e/ d/e/f/g/ a/b/c'/a/ | b/f/g/d/ e/B/c/G/ A/c/E/G/ | F/A/D/E/ F/G/A/B/ c/d/e/f/ | %45
 g/a/d/f/ g/a/d/g/ B/g/d/a/ | g/a/e/f/ g/a/e/g/ c/g/e/g/ | f/g/a/f/ c/e/d/c/ B/g/A/f/ | %48
 gf/e/ d/c/B/A/ G3/2 f/ | f2 z d/e/ f/g/a/f/ | gf/e/ d/c/B/A/ G/B/d/=f/ | %51
 e/d/c/B/ A/f/g/a/ g/f/g/e/ | ^dB z b/a/ g/f/e/d/ | ef/^d/ ef/d/ e2- | e4- ea | g f2 e- e/A/e/^d/ | %56
 e4- ee | AB/^c/ d/e/f/g/ a/f/g/e/ | f/g/f/e/ d/e/f/g/ a/b/c'/a/ | b/f/g/d/ e/B/c/G/ A/c/E/G/ | %60
 F/A/D/E/ F/G/A/B/ c/d/e/f/ | g/a/d/f/ g/a/d/g/ B/g/d/a/ | g/a/e/f/ g/a/e/g/ c/g/e/g/ | %63
 f/g/a/f/ c/e/d/c/ B/g/A/f/ | gf/e/ d/c/B/A/ G3/2 z/ |] %65
V:2
 z/ | G,2 z D GF | GF/E/ D/C/B,/A,/ B,/D/A,/C/ | B,G, B,G, CA, | DC/B,/ A,/G,/F,/E,/ D,/F,/C,/F,/ | %5
 B,,A,, B,,G,, A,,B,, | C,B,, C,A,, B,,C, | D,C,/B,,/ A,,/G,,/F,,/E,,/ D,,/F,,/A,,/D,/ | %8
 G,,2[I:staff -1] D/[I:staff +1]C/B,/A,/ G,/B,/F,/A,/ | G,E, G,E, B,B,, | %10
 E,/F,/G,/E,/ ^C,/G,/B,,/G,/ A,,/G,/F,/E,/ | F,D, F,D, G,E, | %12
 A,G,/F,/ E,/D,/^C,/B,,/ A,,/E,/G,,/E,/ | F,,E,, F,,A,, D,F,, | G,,A,, B,,G,, E,,G,, | %15
 A,,B,, ^C,D, A,,G, | F,2 F,A, D3/2 z/ | G,2 z D GF | GF/E/ D/C/B,/A,/ B,/D/A,/C/ | B,G, B,G, CA, | %20
 DC/B,/ A,/G,/F,/E,/ D,/F,/C,/F,/ | B,,A,, B,,G,, A,,B,, | C,B,, C,A,, B,,C, | %23
 D,C,/B,,/ A,,/G,,/F,,/E,,/ D,,/F,,/A,,/D,/ | %24
 G,,2[I:staff -1] D/[I:staff +1]C/B,/A,/ G,/B,/F,/A,/ | G,E, G,E, B,B,, | %26
 E,/F,/G,/E,/ ^C,/G,/B,,/G,/ A,,/G,/F,/E,/ | F,D, F,D, G,E, | %28
 A,G,/F,/ E,/D,/^C,/B,,/ A,,/E,/G,,/E,/ | F,,E,, F,,A,, D,F,, | G,,A,, B,,G,, E,,G,, | %31
 A,,B,, ^C,D, A,,G, | F,2 F,A, D3/2 z/ | DC/B,/ A,/G,/F,/E,/ D,/A,/C,/A,/ | B,,/ z/ D, G,A, B,G, | %35
 CE CB, CA, | B,A,/G,/ F,/E,/^D,/^C,/ B,,/F,/A,,/F,/ | %37
 G,,/A,,/F,,/A,,/ G,,/A,,/F,,/A,,/ G,,/B,,/E,,/G,,/ | %38
 A,,/B,,/G,,/B,,/ A,,/B,,/G,,/B,,/ A,,/C,/F,,/A,,/ | B,,^C,/^D,/ E,/F,/G,/A,/ B,B,, | %40
 E,F,/G,/ A,/B,/^C/^D/ E/C/=D/B,/ | ^C/D/C/B,/ A,/G,/F,/E,/ F,/D/E,/=C/ | %42
 DD,/E,/ F,/G,/A,/B,/ C/D/E/F/ | GB, CE CA, | DC/B,/ A,/G,/F,/E,/ D,/A,/C,/A,/ | %45
 B,,A,, B,,D, G,B,, | C,D, E,C, A,,C, | D,E, F,G, D,C | B,2 B,D G3/2 z/ | %49
 DC/B,/ A,/G,/F,/E,/ D,/A,/C,/A,/ | B,,/ z/ D, G,A, B,G, | CE CB, CA, | %52
 B,A,/G,/ F,/E,/^D,/^C,/ B,,/F,/A,,/F,/ | G,,/A,,/F,,/A,,/ G,,/A,,/F,,/A,,/ G,,/B,,/E,,/G,,/ | %54
 A,,/B,,/G,,/B,,/ A,,/B,,/G,,/B,,/ A,,/C,/F,,/A,,/ | B,,^C,/^D,/ E,/F,/G,/A,/ B,B,, | %56
 E,F,/G,/ A,/B,/^C/^D/ E/C/=D/B,/ | ^C/D/C/B,/ A,/G,/F,/E,/ F,/D/E,/=C/ | %58
 DD,/E,/ F,/G,/A,/B,/ C/D/E/F/ | GB, CE CA, | DC/B,/ A,/G,/F,/E,/ D,/A,/C,/A,/ | %61
 B,,A,, B,,D, G,B,, | C,D, E,C, A,,C, | D,E, F,G, D,C | B,2 B,D G3/2 z/ |] %65
V:3
 x/ | d z z4 | x6 | x6 | x6 | x6 | x6 | x6 | z/ G/F/E/ z4 | x6 | x6 | x6 | x6 | x6 | x6 | x6 | x6 | %17
 d z z4 | x6 | x6 | x6 | x6 | x6 | x6 | z/ G/F/E/ z4 | x6 | x6 | x6 | x6 | x6 | x6 | x6 | x6 | %33
 d2 z4 | x6 | x6 | x6 | z4 z B | cd/B/ cd/B/ cc | BA G2 F2 | z c BA G z | x6 | x6 | x6 | x6 | x6 | %46
 x6 | x6 | x6 | d2 z4 | x6 | x6 | x6 | z4 z B | cd/B/ cd/B/ cc | BA G2 F2 | z c BA G z | x6 | x6 | %59
 x6 | x6 | x6 | x6 | x6 | x6 |] %65
V:4
 x/ | B z z4 | x6 | x6 | x6 | x6 | x6 | x6 | x6 | x6 | x6 | x6 | x6 | x6 | x6 | x6 | x6 | B z z4 | %18
 x6 | x6 | x6 | x6 | x6 | x6 | x6 | x6 | x6 | x6 | x6 | x6 | x6 | x6 | x6 | A2 z4 | x6 | x6 | x6 | %37
 x6 | x6 | x6 | x6 | x6 | x6 | x6 | x6 | x6 | x6 | x6 | x6 | A2 z4 | x6 | x6 | x6 | x6 | x6 | x6 | %56
 x6 | x6 | x6 | x6 | x6 | x6 | x6 | x6 | x6 |] %65
V:5
 x/ | x6 | x6 | x6 | x6 | x6 | x6 | x6 | x6 | x6 | x6 | x6 | x6 | x6 | x6 | z4 A,,2 | %16
 z D,3- D,3/2 z/ | x6 | x6 | x6 | x6 | x6 | x6 | x6 | x6 | x6 | x6 | x6 | x6 | x6 | x6 | z4 A,,2 | %32
 z D,3- D,3/2 x/ | x6 | x6 | x6 | x6 | x6 | x6 | x6 | x6 | x6 | x6 | x6 | x6 | x6 | x6 | z4 D,2 | %48
 z G,3- G,3/2 x/ | x6 | x6 | x6 | x6 | x6 | x6 | x6 | x6 | x6 | x6 | x6 | x6 | x6 | x6 | z4 D,2 | %64
 z G,3- G,3/2 x/ |] %65

